X:1
T:Title
%%score { 1 | 2 }
L:1/8
Q:1/4=100
M:4/4
K:F
V:1 treble nm="Grand Piano"
V:2 treble 
V:1
 A2 A2 G2 F2 | B2 B2 [GB]4 | [GB]2 [GB]2 A2 G2 | c2 c2 c4 | [Ac]2 [Ac]2 [GB]2 [FA]2 | %5
w: T.~E.~Perkins * * *|||||
 [Fd]2 [Fd]2 [Fd]4 | c2 d2 c2 F2 | [FA]2 [EG]2 F4 | [EG]2 [EG]2 [EG]2 [EG]2 | [GB]2 [FA]2 [EG]4 | %10
w: |||||
 A2 B2 c2 F2 | A2 [EG]2 F4 |] %12
w: ||
V:2
 [F,CF]2 [CF]2 [B,CE]2 [A,C]2 | [G,CE]2[K:bass] [F,DF]2 [E,C]4 | %2
 [C,C]2 [C,C]2[K:treble] [CF]2 [B,CE]2 | [A,CF]2 [G,B,E]2 [F,A,F]4 | [F,C]2 [F,C]2 [E,C]2 [F,C]2 | %5
 [B,,B,]2 [B,,B,]2 [B,,B,]4 | [F,A,F]2 [F,B,F]2 [F,A,F]2 [D,A,]2 | [C,C]2 [C,B,]2 [F,A,]4 | %8
 [C,C]2 [C,C]2 [C,C]2 [C,C]2 | [C,C]2 [C,C]2 [C,C]4 | [F,CF]2 [G,CE]2 [A,CF]2 [B,D]2 | %11
 [CF]2[K:bass] [C,B,]2 [F,A,]4 |] %12

